packages/ffe-icons/icons/filled/md/post_add.svg

<svg xmlns="http://www.w3.org/2000/svg" height="24" viewBox="0 -960 960 960" width="24"><path d="M202.308-140.001q-30.308 0-51.307-21-21-21-21-51.308v-535.382q0-30.308 21-51.308 20.999-21 51.307-21h336.155q12.75 0 21.374 8.629 8.625 8.629 8.625 21.384 0 12.756-8.625 21.371Q551.213-760 538.463-760H202.308q-4.616 0-8.462 3.846-3.847 3.847-3.847 8.463v535.382q0 4.616 3.847 8.463 3.846 3.846 8.462 3.846h535.383q4.615 0 8.462-3.846 3.846-3.847 3.846-8.463v-336.155q0-12.749 8.629-21.374 8.629-8.625 21.384-8.625t21.371 8.625q8.615 8.625 8.615 21.374v336.155q0 30.308-21 51.308t-51.307 21H202.308Zm147.691-150q-12.749 0-21.374-8.628Q320-307.258 320-320.013q0-12.756 8.625-21.371 8.625-8.615 21.374-8.615h240q12.75 0 21.375 8.628 8.625 8.629 8.625 21.384 0 12.756-8.625 21.371-8.625 8.615-21.375 8.615h-240Zm0-120q-12.749 0-21.374-8.628Q320-427.258 320-440.013q0-12.756 8.625-21.371 8.625-8.615 21.374-8.615h240q12.75 0 21.375 8.628 8.625 8.629 8.625 21.384 0 12.756-8.625 21.371-8.625 8.615-21.375 8.615h-240Zm0-120q-12.749 0-21.374-8.628Q320-547.258 320-560.013q0-12.756 8.625-21.371 8.625-8.615 21.374-8.615h240q12.75 0 21.375 8.628 8.625 8.629 8.625 21.384 0 12.756-8.625 21.371-8.625 8.615-21.375 8.615h-240Zm369.988-90q-12.756 0-21.371-8.625-8.615-8.625-8.615-21.375v-50H640q-12.75 0-21.375-8.629-8.624-8.629-8.624-21.384 0-12.756 8.624-21.371Q627.25-760 640-760h50.001v-50.001q0-12.749 8.628-21.374Q707.258-840 720.013-840q12.756 0 21.371 8.625 8.615 8.625 8.615 21.374V-760H800q12.75 0 21.375 8.629 8.624 8.628 8.624 21.384 0 12.755-8.624 21.37-8.625 8.616-21.375 8.616h-50.001v50q0 12.75-8.628 21.375-8.629 8.625-21.384 8.625Z"/></svg>

<svg xmlns="http://www.w3.org/2000/svg" height="24" viewBox="0 -960 960 960" width="24"><path d="M202.31-140Q172-140 151-161q-21-21-21-51.31v-535.38Q130-778 151-799q21-21 51.31-21h336.15q12.75 0 21.38 8.63 8.62 8.63 8.62 21.38 0 12.76-8.62 21.37-8.63 8.62-21.38 8.62H202.31q-4.62 0-8.46 3.85-3.85 3.84-3.85 8.46v535.38q0 4.62 3.85 8.46 3.84 3.85 8.46 3.85h535.38q4.62 0 8.46-3.85 3.85-3.84 3.85-8.46v-336.15q0-12.75 8.63-21.38 8.63-8.62 21.38-8.62 12.76 0 21.37 8.62 8.62 8.63 8.62 21.38v336.15Q810-182 789-161q-21 21-51.31 21H202.31ZM350-290q-12.75 0-21.38-8.63-8.62-8.63-8.62-21.38 0-12.76 8.62-21.37Q337.25-350 350-350h240q12.75 0 21.37 8.63 8.63 8.63 8.63 21.38 0 12.76-8.63 21.37Q602.75-290 590-290H350Zm0-120q-12.75 0-21.38-8.63-8.62-8.63-8.62-21.38 0-12.76 8.62-21.37Q337.25-470 350-470h240q12.75 0 21.37 8.63 8.63 8.63 8.63 21.38 0 12.76-8.63 21.37Q602.75-410 590-410H350Zm0-120q-12.75 0-21.38-8.63-8.62-8.63-8.62-21.38 0-12.76 8.62-21.37Q337.25-590 350-590h240q12.75 0 21.37 8.63 8.63 8.63 8.63 21.38 0 12.76-8.63 21.37Q602.75-530 590-530H350Zm369.99-90q-12.76 0-21.37-8.63Q690-637.25 690-650v-50h-50q-12.75 0-21.37-8.63-8.63-8.63-8.63-21.38 0-12.76 8.63-21.37Q627.25-760 640-760h50v-50q0-12.75 8.63-21.38 8.63-8.62 21.38-8.62 12.76 0 21.37 8.62Q750-822.75 750-810v50h50q12.75 0 21.37 8.63 8.63 8.63 8.63 21.38 0 12.76-8.63 21.37Q812.75-700 800-700h-50v50q0 12.75-8.63 21.37-8.63 8.63-21.38 8.63Z"/></svg>
